ncols 100
nrows 100
xllcorner 79.7000
yllcorner 30.5200
cellsize 0.00045
NODATA_value -9999
1800 1822.5 1845 1867.5 1890 1912.5 1935 1957.5 1980 2002.5 2025 2047.5 2070 2092.5 2115 2137.5 2160 2182.5 2205 2227.5 2250 2272.5 2295 2317.5 2340 2362.5 2385 2407.5 2430 2452.5 2475 2497.5 2520 2542.5 2565 2587.5 2610 2632.5 2655 2677.5 2700 2722.5 2745 2767.5 2790 2812.5 2835 2857.5 2880 2902.5 2925 2947.5 2970 2992.5 3015 3037.5 3060 3082.5 3105 3127.5 3150 3172.5 3195 3217.5 3240 3262.5 3285 3307.5 3330 3352.5 3375 3397.5 3420 3442.5 3465 3487.5 3510 3532.5 3555 3577.5 3600 3622.5 3645 3667.5 3690 3712.5 3735 3757.5 3780 3802.5 3825 3847.5 3870 3892.5 3915 3937.5 3960 3982.5 4005 4027.5
1826.5 1821 1843.5 1866 1888.5 1911 1933.5 1956 1978.5 2001 2023.5 2046 2068.5 2091 2113.5 2136 2158.5 2181 2203.5 2226 2248.5 2271 2293.5 2316 2338.5 2361 2383.5 2406 2428.5 2451 2473.5 2496 2518.5 2541 2563.5 2586 2608.5 2631 2653.5 2676 2698.5 2721 2743.5 2766 2788.5 2811 2833.5 2856 2878.5 2901 2923.5 2946 2968.5 2991 3013.5 3036 3058.5 3081 3103.5 3126 3148.5 3171 3193.5 3216 3238.5 3261 3283.5 3306 3328.5 3351 3373.5 3396 3418.5 3441 3463.5 3486 3508.5 3531 3553.5 3576 3598.5 3621 3643.5 3666 3688.5 3711 3733.5 3756 3778.5 3801 3823.5 3846 3868.5 3891 3913.5 3936 3958.5 3981 4003.5 4026
1853 1847.5 1842 1864.5 1887 1909.5 1932 1954.5 1977 1999.5 2022 2044.5 2067 2089.5 2112 2134.5 2157 2179.5 2202 2224.5 2247 2269.5 2292 2314.5 2337 2359.5 2382 2404.5 2427 2449.5 2472 2494.5 2517 2539.5 2562 2584.5 2607 2629.5 2652 2674.5 2697 2719.5 2742 2764.5 2787 2809.5 2832 2854.5 2877 2899.5 2922 2944.5 2967 2989.5 3012 3034.5 3057 3079.5 3102 3124.5 3147 3169.5 3192 3214.5 3237 3259.5 3282 3304.5 3327 3349.5 3372 3394.5 3417 3439.5 3462 3484.5 3507 3529.5 3552 3574.5 3597 3619.5 3642 3664.5 3687 3709.5 3732 3754.5 3777 3799.5 3822 3844.5 3867 3889.5 3912 3934.5 3957 3979.5 4002 4024.5
1879.5 1874 1868.5 1863 1885.5 1908 1930.5 1953 1975.5 1998 2020.5 2043 2065.5 2088 2110.5 2133 2155.5 2178 2200.5 2223 2245.5 2268 2290.5 2313 2335.5 2358 2380.5 2403 2425.5 2448 2470.5 2493 2515.5 2538 2560.5 2583 2605.5 2628 2650.5 2673 2695.5 2718 2740.5 2763 2785.5 2808 2830.5 2853 2875.5 2898 2920.5 2943 2965.5 2988 3010.5 3033 3055.5 3078 3100.5 3123 3145.5 3168 3190.5 3213 3235.5 3258 3280.5 3303 3325.5 3348 3370.5 3393 3415.5 3438 3460.5 3483 3505.5 3528 3550.5 3573 3595.5 3618 3640.5 3663 3685.5 3708 3730.5 3753 3775.5 3798 3820.5 3843 3865.5 3888 3910.5 3933 3955.5 3978 4000.5 4023
1906 1900.5 1895 1889.5 1884 1906.5 1929 1951.5 1974 1996.5 2019 2041.5 2064 2086.5 2109 2131.5 2154 2176.5 2199 2221.5 2244 2266.5 2289 2311.5 2334 2356.5 2379 2401.5 2424 2446.5 2469 2491.5 2514 2536.5 2559 2581.5 2604 2626.5 2649 2671.5 2694 2716.5 2739 2761.5 2784 2806.5 2829 2851.5 2874 2896.5 2919 2941.5 2964 2986.5 3009 3031.5 3054 3076.5 3099 3121.5 3144 3166.5 3189 3211.5 3234 3256.5 3279 3301.5 3324 3346.5 3369 3391.5 3414 3436.5 3459 3481.5 3504 3526.5 3549 3571.5 3594 3616.5 3639 3661.5 3684 3706.5 3729 3751.5 3774 3796.5 3819 3841.5 3864 3886.5 3909 3931.5 3954 3976.5 3999 4021.5
1932.5 1927 1921.5 1916 1910.5 1905 1927.5 1950 1972.5 1995 2017.5 2040 2062.5 2085 2107.5 2130 2152.5 2175 2197.5 2220 2242.5 2265 2287.5 2310 2332.5 2355 2377.5 2400 2422.5 2445 2467.5 2490 2512.5 2535 2557.5 2580 2602.5 2625 2647.5 2670 2692.5 2715 2737.5 2760 2782.5 2805 2827.5 2850 2872.5 2895 2917.5 2940 2962.5 2985 3007.5 3030 3052.5 3075 3097.5 3120 3142.5 3165 3187.5 3210 3232.5 3255 3277.5 3300 3322.5 3345 3367.5 3390 3412.5 3435 3457.5 3480 3502.5 3525 3547.5 3570 3592.5 3615 3637.5 3660 3682.5 3705 3727.5 3750 3772.5 3795 3817.5 3840 3862.5 3885 3907.5 3930 3952.5 3975 3997.5 4020
1959 1953.5 1948 1942.5 1937 1931.5 1926 1948.5 1971 1993.5 2016 2038.5 2061 2083.5 2106 2128.5 2151 2173.5 2196 2218.5 2241 2263.5 2286 2308.5 2331 2353.5 2376 2398.5 2421 2443.5 2466 2488.5 2511 2533.5 2556 2578.5 2601 2623.5 2646 2668.5 2691 2713.5 2736 2758.5 2781 2803.5 2826 2848.5 2871 2893.5 2916 2938.5 2961 2983.5 3006 3028.5 3051 3073.5 3096 3118.5 3141 3163.5 3186 3208.5 3231 3253.5 3276 3298.5 3321 3343.5 3366 3388.5 3411 3433.5 3456 3478.5 3501 3523.5 3546 3568.5 3591 3613.5 3636 3658.5 3681 3703.5 3726 3748.5 3771 3793.5 3816 3838.5 3861 3883.5 3906 3928.5 3951 3973.5 3996 4018.5
1985.5 1980 1974.5 1969 1963.5 1958 1952.5 1947 1969.5 1992 2014.5 2037 2059.5 2082 2104.5 2127 2149.5 2172 2194.5 2217 2239.5 2262 2284.5 2307 2329.5 2352 2374.5 2397 2419.5 2442 2464.5 2487 2509.5 2532 2554.5 2577 2599.5 2622 2644.5 2667 2689.5 2712 2734.5 2757 2779.5 2802 2824.5 2847 2869.5 2892 2914.5 2937 2959.5 2982 3004.5 3027 3049.5 3072 3094.5 3117 3139.5 3162 3184.5 3207 3229.5 3252 3274.5 3297 3319.5 3342 3364.5 3387 3409.5 3432 3454.5 3477 3499.5 3522 3544.5 3567 3589.5 3612 3634.5 3657 3679.5 3702 3724.5 3747 3769.5 3792 3814.5 3837 3859.5 3882 3904.5 3927 3949.5 3972 3994.5 4017
2012 2006.5 2001 1995.5 1990 1984.5 1979 1973.5 1968 1990.5 2013 2035.5 2058 2080.5 2103 2125.5 2148 2170.5 2193 2215.5 2238 2260.5 2283 2305.5 2328 2350.5 2373 2395.5 2418 2440.5 2463 2485.5 2508 2530.5 2553 2575.5 2598 2620.5 2643 2665.5 2688 2710.5 2733 2755.5 2778 2800.5 2823 2845.5 2868 2890.5 2913 2935.5 2958 2980.5 3003 3025.5 3048 3070.5 3093 3115.5 3138 3160.5 3183 3205.5 3228 3250.5 3273 3295.5 3318 3340.5 3363 3385.5 3408 3430.5 3453 3475.5 3498 3520.5 3543 3565.5 3588 3610.5 3633 3655.5 3678 3700.5 3723 3745.5 3768 3790.5 3813 3835.5 3858 3880.5 3903 3925.5 3948 3970.5 3993 4015.5
2038.5 2033 2027.5 2022 2016.5 2011 2005.5 2000 1994.5 1989 2011.5 2034 2056.5 2079 2101.5 2124 2146.5 2169 2191.5 2214 2236.5 2259 2281.5 2304 2326.5 2349 2371.5 2394 2416.5 2439 2461.5 2484 2506.5 2529 2551.5 2574 2596.5 2619 2641.5 2664 2686.5 2709 2731.5 2754 2776.5 2799 2821.5 2844 2866.5 2889 2911.5 2934 2956.5 2979 3001.5 3024 3046.5 3069 3091.5 3114 3136.5 3159 3181.5 3204 3226.5 3249 3271.5 3294 3316.5 3339 3361.5 3384 3406.5 3429 3451.5 3474 3496.5 3519 3541.5 3564 3586.5 3609 3631.5 3654 3676.5 3699 3721.5 3744 3766.5 3789 3811.5 3834 3856.5 3879 3901.5 3924 3946.5 3969 3991.5 4014
2065 2059.5 2054 2048.5 2043 2037.5 2032 2026.5 2021 2015.5 2010 2032.5 2055 2077.5 2100 2122.5 2145 2167.5 2190 2212.5 2235 2257.5 2280 2302.5 2325 2347.5 2370 2392.5 2415 2437.5 2460 2482.5 2505 2527.5 2550 2572.5 2595 2617.5 2640 2662.5 2685 2707.5 2730 2752.5 2775 2797.5 2820 2842.5 2865 2887.5 2910 2932.5 2955 2977.5 3000 3022.5 3045 3067.5 3090 3112.5 3135 3157.5 3180 3202.5 3225 3247.5 3270 3292.5 3315 3337.5 3360 3382.5 3405 3427.5 3450 3472.5 3495 3517.5 3540 3562.5 3585 3607.5 3630 3652.5 3675 3697.5 3720 3742.5 3765 3787.5 3810 3832.5 3855 3877.5 3900 3922.5 3945 3967.5 3990 4012.5
2091.5 2086 2080.5 2075 2069.5 2064 2058.5 2053 2047.5 2042 2036.5 2031 2053.5 2076 2098.5 2121 2143.5 2166 2188.5 2211 2233.5 2256 2278.5 2301 2323.5 2346 2368.5 2391 2413.5 2436 2458.5 2481 2503.5 2526 2548.5 2571 2593.5 2616 2638.5 2661 2683.5 2706 2728.5 2751 2773.5 2796 2818.5 2841 2863.5 2886 2908.5 2931 2953.5 2976 2998.5 3021 3043.5 3066 3088.5 3111 3133.5 3156 3178.5 3201 3223.5 3246 3268.5 3291 3313.5 3336 3358.5 3381 3403.5 3426 3448.5 3471 3493.5 3516 3538.5 3561 3583.5 3606 3628.5 3651 3673.5 3696 3718.5 3741 3763.5 3786 3808.5 3831 3853.5 3876 3898.5 3921 3943.5 3966 3988.5 4011
2118 2112.5 2107 2101.5 2096 2090.5 2085 2079.5 2074 2068.5 2063 2057.5 2052 2074.5 2097 2119.5 2142 2164.5 2187 2209.5 2232 2254.5 2277 2299.5 2322 2344.5 2367 2389.5 2412 2434.5 2457 2479.5 2502 2524.5 2547 2569.5 2592 2614.5 2637 2659.5 2682 2704.5 2727 2749.5 2772 2794.5 2817 2839.5 2862 2884.5 2907 2929.5 2952 2974.5 2997 3019.5 3042 3064.5 3087 3109.5 3132 3154.5 3177 3199.5 3222 3244.5 3267 3289.5 3312 3334.5 3357 3379.5 3402 3424.5 3447 3469.5 3492 3514.5 3537 3559.5 3582 3604.5 3627 3649.5 3672 3694.5 3717 3739.5 3762 3784.5 3807 3829.5 3852 3874.5 3897 3919.5 3942 3964.5 3987 4009.5
2144.5 2139 2133.5 2128 2122.5 2117 2111.5 2106 2100.5 2095 2089.5 2084 2078.5 2073 2095.5 2118 2140.5 2163 2185.5 2208 2230.5 2253 2275.5 2298 2320.5 2343 2365.5 2388 2410.5 2433 2455.5 2478 2500.5 2523 2545.5 2568 2590.5 2613 2635.5 2658 2680.5 2703 2725.5 2748 2770.5 2793 2815.5 2838 2860.5 2883 2905.5 2928 2950.5 2973 2995.5 3018 3040.5 3063 3085.5 3108 3130.5 3153 3175.5 3198 3220.5 3243 3265.5 3288 3310.5 3333 3355.5 3378 3400.5 3423 3445.5 3468 3490.5 3513 3535.5 3558 3580.5 3603 3625.5 3648 3670.5 3693 3715.5 3738 3760.5 3783 3805.5 3828 3850.5 3873 3895.5 3918 3940.5 3963 3985.5 4008
2171 2165.5 2160 2154.5 2149 2143.5 2138 2132.5 2127 2121.5 2116 2110.5 2105 2099.5 2094 2116.5 2139 2161.5 2184 2206.5 2229 2251.5 2274 2296.5 2319 2341.5 2364 2386.5 2409 2431.5 2454 2476.5 2499 2521.5 2544 2566.5 2589 2611.5 2634 2656.5 2679 2701.5 2724 2746.5 2769 2791.5 2814 2836.5 2859 2881.5 2904 2926.5 2949 2971.5 2994 3016.5 3039 3061.5 3084 3106.5 3129 3151.5 3174 3196.5 3219 3241.5 3264 3286.5 3309 3331.5 3354 3376.5 3399 3421.5 3444 3466.5 3489 3511.5 3534 3556.5 3579 3601.5 3624 3646.5 3669 3691.5 3714 3736.5 3759 3781.5 3804 3826.5 3849 3871.5 3894 3916.5 3939 3961.5 3984 4006.5
2197.5 2192 2186.5 2181 2175.5 2170 2164.5 2159 2153.5 2148 2142.5 2137 2131.5 2126 2120.5 2115 2137.5 2160 2182.5 2205 2227.5 2250 2272.5 2295 2317.5 2340 2362.5 2385 2407.5 2430 2452.5 2475 2497.5 2520 2542.5 2565 2587.5 2610 2632.5 2655 2677.5 2700 2722.5 2745 2767.5 2790 2812.5 2835 2857.5 2880 2902.5 2925 2947.5 2970 2992.5 3015 3037.5 3060 3082.5 3105 3127.5 3150 3172.5 3195 3217.5 3240 3262.5 3285 3307.5 3330 3352.5 3375 3397.5 3420 3442.5 3465 3487.5 3510 3532.5 3555 3577.5 3600 3622.5 3645 3667.5 3690 3712.5 3735 3757.5 3780 3802.5 3825 3847.5 3870 3892.5 3915 3937.5 3960 3982.5 4005
2224 2218.5 2213 2207.5 2202 2196.5 2191 2185.5 2180 2174.5 2169 2163.5 2158 2152.5 2147 2141.5 2136 2158.5 2181 2203.5 2226 2248.5 2271 2293.5 2316 2338.5 2361 2383.5 2406 2428.5 2451 2473.5 2496 2518.5 2541 2563.5 2586 2608.5 2631 2653.5 2676 2698.5 2721 2743.5 2766 2788.5 2811 2833.5 2856 2878.5 2901 2923.5 2946 2968.5 2991 3013.5 3036 3058.5 3081 3103.5 3126 3148.5 3171 3193.5 3216 3238.5 3261 3283.5 3306 3328.5 3351 3373.5 3396 3418.5 3441 3463.5 3486 3508.5 3531 3553.5 3576 3598.5 3621 3643.5 3666 3688.5 3711 3733.5 3756 3778.5 3801 3823.5 3846 3868.5 3891 3913.5 3936 3958.5 3981 4003.5
2250.5 2245 2239.5 2234 2228.5 2223 2217.5 2212 2206.5 2201 2195.5 2190 2184.5 2179 2173.5 2168 2162.5 2157 2179.5 2202 2224.5 2247 2269.5 2292 2314.5 2337 2359.5 2382 2404.5 2427 2449.5 2472 2494.5 2517 2539.5 2562 2584.5 2607 2629.5 2652 2674.5 2697 2719.5 2742 2764.5 2787 2809.5 2832 2854.5 2877 2899.5 2922 2944.5 2967 2989.5 3012 3034.5 3057 3079.5 3102 3124.5 3147 3169.5 3192 3214.5 3237 3259.5 3282 3304.5 3327 3349.5 3372 3394.5 3417 3439.5 3462 3484.5 3507 3529.5 3552 3574.5 3597 3619.5 3642 3664.5 3687 3709.5 3732 3754.5 3777 3799.5 3822 3844.5 3867 3889.5 3912 3934.5 3957 3979.5 4002
2277 2271.5 2266 2260.5 2255 2249.5 2244 2238.5 2233 2227.5 2222 2216.5 2211 2205.5 2200 2194.5 2189 2183.5 2178 2200.5 2223 2245.5 2268 2290.5 2313 2335.5 2358 2380.5 2403 2425.5 2448 2470.5 2493 2515.5 2538 2560.5 2583 2605.5 2628 2650.5 2673 2695.5 2718 2740.5 2763 2785.5 2808 2830.5 2853 2875.5 2898 2920.5 2943 2965.5 2988 3010.5 3033 3055.5 3078 3100.5 3123 3145.5 3168 3190.5 3213 3235.5 3258 3280.5 3303 3325.5 3348 3370.5 3393 3415.5 3438 3460.5 3483 3505.5 3528 3550.5 3573 3595.5 3618 3640.5 3663 3685.5 3708 3730.5 3753 3775.5 3798 3820.5 3843 3865.5 3888 3910.5 3933 3955.5 3978 4000.5
2303.5 2298 2292.5 2287 2281.5 2276 2270.5 2265 2259.5 2254 2248.5 2243 2237.5 2232 2226.5 2221 2215.5 2210 2204.5 2199 2221.5 2244 2266.5 2289 2311.5 2334 2356.5 2379 2401.5 2424 2446.5 2469 2491.5 2514 2536.5 2559 2581.5 2604 2626.5 2649 2671.5 2694 2716.5 2739 2761.5 2784 2806.5 2829 2851.5 2874 2896.5 2919 2941.5 2964 2986.5 3009 3031.5 3054 3076.5 3099 3121.5 3144 3166.5 3189 3211.5 3234 3256.5 3279 3301.5 3324 3346.5 3369 3391.5 3414 3436.5 3459 3481.5 3504 3526.5 3549 3571.5 3594 3616.5 3639 3661.5 3684 3706.5 3729 3751.5 3774 3796.5 3819 3841.5 3864 3886.5 3909 3931.5 3954 3976.5 3999
2330 2324.5 2319 2313.5 2308 2302.5 2297 2291.5 2286 2280.5 2275 2269.5 2264 2258.5 2253 2247.5 2242 2236.5 2231 2225.5 2220 2242.5 2265 2287.5 2310 2332.5 2355 2377.5 2400 2422.5 2445 2467.5 2490 2512.5 2535 2557.5 2580 2602.5 2625 2647.5 2670 2692.5 2715 2737.5 2760 2782.5 2805 2827.5 2850 2872.5 2895 2917.5 2940 2962.5 2985 3007.5 3030 3052.5 3075 3097.5 3120 3142.5 3165 3187.5 3210 3232.5 3255 3277.5 3300 3322.5 3345 3367.5 3390 3412.5 3435 3457.5 3480 3502.5 3525 3547.5 3570 3592.5 3615 3637.5 3660 3682.5 3705 3727.5 3750 3772.5 3795 3817.5 3840 3862.5 3885 3907.5 3930 3952.5 3975 3997.5
2356.5 2351 2345.5 2340 2334.5 2329 2323.5 2318 2312.5 2307 2301.5 2296 2290.5 2285 2279.5 2274 2268.5 2263 2257.5 2252 2246.5 2241 2263.5 2286 2308.5 2331 2353.5 2376 2398.5 2421 2443.5 2466 2488.5 2511 2533.5 2556 2578.5 2601 2623.5 2646 2668.5 2691 2713.5 2736 2758.5 2781 2803.5 2826 2848.5 2871 2893.5 2916 2938.5 2961 2983.5 3006 3028.5 3051 3073.5 3096 3118.5 3141 3163.5 3186 3208.5 3231 3253.5 3276 3298.5 3321 3343.5 3366 3388.5 3411 3433.5 3456 3478.5 3501 3523.5 3546 3568.5 3591 3613.5 3636 3658.5 3681 3703.5 3726 3748.5 3771 3793.5 3816 3838.5 3861 3883.5 3906 3928.5 3951 3973.5 3996
2383 2377.5 2372 2366.5 2361 2355.5 2350 2344.5 2339 2333.5 2328 2322.5 2317 2311.5 2306 2300.5 2295 2289.5 2284 2278.5 2273 2267.5 2262 2284.5 2307 2329.5 2352 2374.5 2397 2419.5 2442 2464.5 2487 2509.5 2532 2554.5 2577 2599.5 2622 2644.5 2667 2689.5 2712 2734.5 2757 2779.5 2802 2824.5 2847 2869.5 2892 2914.5 2937 2959.5 2982 3004.5 3027 3049.5 3072 3094.5 3117 3139.5 3162 3184.5 3207 3229.5 3252 3274.5 3297 3319.5 3342 3364.5 3387 3409.5 3432 3454.5 3477 3499.5 3522 3544.5 3567 3589.5 3612 3634.5 3657 3679.5 3702 3724.5 3747 3769.5 3792 3814.5 3837 3859.5 3882 3904.5 3927 3949.5 3972 3994.5
2409.5 2404 2398.5 2393 2387.5 2382 2376.5 2371 2365.5 2360 2354.5 2349 2343.5 2338 2332.5 2327 2321.5 2316 2310.5 2305 2299.5 2294 2288.5 2283 2305.5 2328 2350.5 2373 2395.5 2418 2440.5 2463 2485.5 2508 2530.5 2553 2575.5 2598 2620.5 2643 2665.5 2688 2710.5 2733 2755.5 2778 2800.5 2823 2845.5 2868 2890.5 2913 2935.5 2958 2980.5 3003 3025.5 3048 3070.5 3093 3115.5 3138 3160.5 3183 3205.5 3228 3250.5 3273 3295.5 3318 3340.5 3363 3385.5 3408 3430.5 3453 3475.5 3498 3520.5 3543 3565.5 3588 3610.5 3633 3655.5 3678 3700.5 3723 3745.5 3768 3790.5 3813 3835.5 3858 3880.5 3903 3925.5 3948 3970.5 3993
2436 2430.5 2425 2419.5 2414 2408.5 2403 2397.5 2392 2386.5 2381 2375.5 2370 2364.5 2359 2353.5 2348 2342.5 2337 2331.5 2326 2320.5 2315 2309.5 2304 2326.5 2349 2371.5 2394 2416.5 2439 2461.5 2484 2506.5 2529 2551.5 2574 2596.5 2619 2641.5 2664 2686.5 2709 2731.5 2754 2776.5 2799 2821.5 2844 2866.5 2889 2911.5 2934 2956.5 2979 3001.5 3024 3046.5 3069 3091.5 3114 3136.5 3159 3181.5 3204 3226.5 3249 3271.5 3294 3316.5 3339 3361.5 3384 3406.5 3429 3451.5 3474 3496.5 3519 3541.5 3564 3586.5 3609 3631.5 3654 3676.5 3699 3721.5 3744 3766.5 3789 3811.5 3834 3856.5 3879 3901.5 3924 3946.5 3969 3991.5
2462.5 2457 2451.5 2446 2440.5 2435 2429.5 2424 2418.5 2413 2407.5 2402 2396.5 2391 2385.5 2380 2374.5 2369 2363.5 2358 2352.5 2347 2341.5 2336 2330.5 2325 2347.5 2370 2392.5 2415 2437.5 2460 2482.5 2505 2527.5 2550 2572.5 2595 2617.5 2640 2662.5 2685 2707.5 2730 2752.5 2775 2797.5 2820 2842.5 2865 2887.5 2910 2932.5 2955 2977.5 3000 3022.5 3045 3067.5 3090 3112.5 3135 3157.5 3180 3202.5 3225 3247.5 3270 3292.5 3315 3337.5 3360 3382.5 3405 3427.5 3450 3472.5 3495 3517.5 3540 3562.5 3585 3607.5 3630 3652.5 3675 3697.5 3720 3742.5 3765 3787.5 3810 3832.5 3855 3877.5 3900 3922.5 3945 3967.5 3990
2489 2483.5 2478 2472.5 2467 2461.5 2456 2450.5 2445 2439.5 2434 2428.5 2423 2417.5 2412 2406.5 2401 2395.5 2390 2384.5 2379 2373.5 2368 2362.5 2357 2351.5 2346 2368.5 2391 2413.5 2436 2458.5 2481 2503.5 2526 2548.5 2571 2593.5 2616 2638.5 2661 2683.5 2706 2728.5 2751 2773.5 2796 2818.5 2841 2863.5 2886 2908.5 2931 2953.5 2976 2998.5 3021 3043.5 3066 3088.5 3111 3133.5 3156 3178.5 3201 3223.5 3246 3268.5 3291 3313.5 3336 3358.5 3381 3403.5 3426 3448.5 3471 3493.5 3516 3538.5 3561 3583.5 3606 3628.5 3651 3673.5 3696 3718.5 3741 3763.5 3786 3808.5 3831 3853.5 3876 3898.5 3921 3943.5 3966 3988.5
2515.5 2510 2504.5 2499 2493.5 2488 2482.5 2477 2471.5 2466 2460.5 2455 2449.5 2444 2438.5 2433 2427.5 2422 2416.5 2411 2405.5 2400 2394.5 2389 2383.5 2378 2372.5 2367 2389.5 2412 2434.5 2457 2479.5 2502 2524.5 2547 2569.5 2592 2614.5 2637 2659.5 2682 2704.5 2727 2749.5 2772 2794.5 2817 2839.5 2862 2884.5 2907 2929.5 2952 2974.5 2997 3019.5 3042 3064.5 3087 3109.5 3132 3154.5 3177 3199.5 3222 3244.5 3267 3289.5 3312 3334.5 3357 3379.5 3402 3424.5 3447 3469.5 3492 3514.5 3537 3559.5 3582 3604.5 3627 3649.5 3672 3694.5 3717 3739.5 3762 3784.5 3807 3829.5 3852 3874.5 3897 3919.5 3942 3964.5 3987
2542 2536.5 2531 2525.5 2520 2514.5 2509 2503.5 2498 2492.5 2487 2481.5 2476 2470.5 2465 2459.5 2454 2448.5 2443 2437.5 2432 2426.5 2421 2415.5 2410 2404.5 2399 2393.5 2388 2410.5 2433 2455.5 2478 2500.5 2523 2545.5 2568 2590.5 2613 2635.5 2658 2680.5 2703 2725.5 2748 2770.5 2793 2815.5 2838 2860.5 2883 2905.5 2928 2950.5 2973 2995.5 3018 3040.5 3063 3085.5 3108 3130.5 3153 3175.5 3198 3220.5 3243 3265.5 3288 3310.5 3333 3355.5 3378 3400.5 3423 3445.5 3468 3490.5 3513 3535.5 3558 3580.5 3603 3625.5 3648 3670.5 3693 3715.5 3738 3760.5 3783 3805.5 3828 3850.5 3873 3895.5 3918 3940.5 3963 3985.5
2568.5 2563 2557.5 2552 2546.5 2541 2535.5 2530 2524.5 2519 2513.5 2508 2502.5 2497 2491.5 2486 2480.5 2475 2469.5 2464 2458.5 2453 2447.5 2442 2436.5 2431 2425.5 2420 2414.5 2409 2431.5 2454 2476.5 2499 2521.5 2544 2566.5 2589 2611.5 2634 2656.5 2679 2701.5 2724 2746.5 2769 2791.5 2814 2836.5 2859 2881.5 2904 2926.5 2949 2971.5 2994 3016.5 3039 3061.5 3084 3106.5 3129 3151.5 3174 3196.5 3219 3241.5 3264 3286.5 3309 3331.5 3354 3376.5 3399 3421.5 3444 3466.5 3489 3511.5 3534 3556.5 3579 3601.5 3624 3646.5 3669 3691.5 3714 3736.5 3759 3781.5 3804 3826.5 3849 3871.5 3894 3916.5 3939 3961.5 3984
2595 2589.5 2584 2578.5 2573 2567.5 2562 2556.5 2551 2545.5 2540 2534.5 2529 2523.5 2518 2512.5 2507 2501.5 2496 2490.5 2485 2479.5 2474 2468.5 2463 2457.5 2452 2446.5 2441 2435.5 2430 2452.5 2475 2497.5 2520 2542.5 2565 2587.5 2610 2632.5 2655 2677.5 2700 2722.5 2745 2767.5 2790 2812.5 2835 2857.5 2880 2902.5 2925 2947.5 2970 2992.5 3015 3037.5 3060 3082.5 3105 3127.5 3150 3172.5 3195 3217.5 3240 3262.5 3285 3307.5 3330 3352.5 3375 3397.5 3420 3442.5 3465 3487.5 3510 3532.5 3555 3577.5 3600 3622.5 3645 3667.5 3690 3712.5 3735 3757.5 3780 3802.5 3825 3847.5 3870 3892.5 3915 3937.5 3960 3982.5
2621.5 2616 2610.5 2605 2599.5 2594 2588.5 2583 2577.5 2572 2566.5 2561 2555.5 2550 2544.5 2539 2533.5 2528 2522.5 2517 2511.5 2506 2500.5 2495 2489.5 2484 2478.5 2473 2467.5 2462 2456.5 2451 2473.5 2496 2518.5 2541 2563.5 2586 2608.5 2631 2653.5 2676 2698.5 2721 2743.5 2766 2788.5 2811 2833.5 2856 2878.5 2901 2923.5 2946 2968.5 2991 3013.5 3036 3058.5 3081 3103.5 3126 3148.5 3171 3193.5 3216 3238.5 3261 3283.5 3306 3328.5 3351 3373.5 3396 3418.5 3441 3463.5 3486 3508.5 3531 3553.5 3576 3598.5 3621 3643.5 3666 3688.5 3711 3733.5 3756 3778.5 3801 3823.5 3846 3868.5 3891 3913.5 3936 3958.5 3981
2648 2642.5 2637 2631.5 2626 2620.5 2615 2609.5 2604 2598.5 2593 2587.5 2582 2576.5 2571 2565.5 2560 2554.5 2549 2543.5 2538 2532.5 2527 2521.5 2516 2510.5 2505 2499.5 2494 2488.5 2483 2477.5 2472 2494.5 2517 2539.5 2562 2584.5 2607 2629.5 2652 2674.5 2697 2719.5 2742 2764.5 2787 2809.5 2832 2854.5 2877 2899.5 2922 2944.5 2967 2989.5 3012 3034.5 3057 3079.5 3102 3124.5 3147 3169.5 3192 3214.5 3237 3259.5 3282 3304.5 3327 3349.5 3372 3394.5 3417 3439.5 3462 3484.5 3507 3529.5 3552 3574.5 3597 3619.5 3642 3664.5 3687 3709.5 3732 3754.5 3777 3799.5 3822 3844.5 3867 3889.5 3912 3934.5 3957 3979.5
2674.5 2669 2663.5 2658 2652.5 2647 2641.5 2636 2630.5 2625 2619.5 2614 2608.5 2603 2597.5 2592 2586.5 2581 2575.5 2570 2564.5 2559 2553.5 2548 2542.5 2537 2531.5 2526 2520.5 2515 2509.5 2504 2498.5 2493 2515.5 2538 2560.5 2583 2605.5 2628 2650.5 2673 2695.5 2718 2740.5 2763 2785.5 2808 2830.5 2853 2875.5 2898 2920.5 2943 2965.5 2988 3010.5 3033 3055.5 3078 3100.5 3123 3145.5 3168 3190.5 3213 3235.5 3258 3280.5 3303 3325.5 3348 3370.5 3393 3415.5 3438 3460.5 3483 3505.5 3528 3550.5 3573 3595.5 3618 3640.5 3663 3685.5 3708 3730.5 3753 3775.5 3798 3820.5 3843 3865.5 3888 3910.5 3933 3955.5 3978
2701 2695.5 2690 2684.5 2679 2673.5 2668 2662.5 2657 2651.5 2646 2640.5 2635 2629.5 2624 2618.5 2613 2607.5 2602 2596.5 2591 2585.5 2580 2574.5 2569 2563.5 2558 2552.5 2547 2541.5 2536 2530.5 2525 2519.5 2514 2536.5 2559 2581.5 2604 2626.5 2649 2671.5 2694 2716.5 2739 2761.5 2784 2806.5 2829 2851.5 2874 2896.5 2919 2941.5 2964 2986.5 3009 3031.5 3054 3076.5 3099 3121.5 3144 3166.5 3189 3211.5 3234 3256.5 3279 3301.5 3324 3346.5 3369 3391.5 3414 3436.5 3459 3481.5 3504 3526.5 3549 3571.5 3594 3616.5 3639 3661.5 3684 3706.5 3729 3751.5 3774 3796.5 3819 3841.5 3864 3886.5 3909 3931.5 3954 3976.5
2727.5 2722 2716.5 2711 2705.5 2700 2694.5 2689 2683.5 2678 2672.5 2667 2661.5 2656 2650.5 2645 2639.5 2634 2628.5 2623 2617.5 2612 2606.5 2601 2595.5 2590 2584.5 2579 2573.5 2568 2562.5 2557 2551.5 2546 2540.5 2535 2557.5 2580 2602.5 2625 2647.5 2670 2692.5 2715 2737.5 2760 2782.5 2805 2827.5 2850 2872.5 2895 2917.5 2940 2962.5 2985 3007.5 3030 3052.5 3075 3097.5 3120 3142.5 3165 3187.5 3210 3232.5 3255 3277.5 3300 3322.5 3345 3367.5 3390 3412.5 3435 3457.5 3480 3502.5 3525 3547.5 3570 3592.5 3615 3637.5 3660 3682.5 3705 3727.5 3750 3772.5 3795 3817.5 3840 3862.5 3885 3907.5 3930 3952.5 3975
2754 2748.5 2743 2737.5 2732 2726.5 2721 2715.5 2710 2704.5 2699 2693.5 2688 2682.5 2677 2671.5 2666 2660.5 2655 2649.5 2644 2638.5 2633 2627.5 2622 2616.5 2611 2605.5 2600 2594.5 2589 2583.5 2578 2572.5 2567 2561.5 2556 2578.5 2601 2623.5 2646 2668.5 2691 2713.5 2736 2758.5 2781 2803.5 2826 2848.5 2871 2893.5 2916 2938.5 2961 2983.5 3006 3028.5 3051 3073.5 3096 3118.5 3141 3163.5 3186 3208.5 3231 3253.5 3276 3298.5 3321 3343.5 3366 3388.5 3411 3433.5 3456 3478.5 3501 3523.5 3546 3568.5 3591 3613.5 3636 3658.5 3681 3703.5 3726 3748.5 3771 3793.5 3816 3838.5 3861 3883.5 3906 3928.5 3951 3973.5
2780.5 2775 2769.5 2764 2758.5 2753 2747.5 2742 2736.5 2731 2725.5 2720 2714.5 2709 2703.5 2698 2692.5 2687 2681.5 2676 2670.5 2665 2659.5 2654 2648.5 2643 2637.5 2632 2626.5 2621 2615.5 2610 2604.5 2599 2593.5 2588 2582.5 2577 2599.5 2622 2644.5 2667 2689.5 2712 2734.5 2757 2779.5 2802 2824.5 2847 2869.5 2892 2914.5 2937 2959.5 2982 3004.5 3027 3049.5 3072 3094.5 3117 3139.5 3162 3184.5 3207 3229.5 3252 3274.5 3297 3319.5 3342 3364.5 3387 3409.5 3432 3454.5 3477 3499.5 3522 3544.5 3567 3589.5 3612 3634.5 3657 3679.5 3702 3724.5 3747 3769.5 3792 3814.5 3837 3859.5 3882 3904.5 3927 3949.5 3972
2807 2801.5 2796 2790.5 2785 2779.5 2774 2768.5 2763 2757.5 2752 2746.5 2741 2735.5 2730 2724.5 2719 2713.5 2708 2702.5 2697 2691.5 2686 2680.5 2675 2669.5 2664 2658.5 2653 2647.5 2642 2636.5 2631 2625.5 2620 2614.5 2609 2603.5 2598 2620.5 2643 2665.5 2688 2710.5 2733 2755.5 2778 2800.5 2823 2845.5 2868 2890.5 2913 2935.5 2958 2980.5 3003 3025.5 3048 3070.5 3093 3115.5 3138 3160.5 3183 3205.5 3228 3250.5 3273 3295.5 3318 3340.5 3363 3385.5 3408 3430.5 3453 3475.5 3498 3520.5 3543 3565.5 3588 3610.5 3633 3655.5 3678 3700.5 3723 3745.5 3768 3790.5 3813 3835.5 3858 3880.5 3903 3925.5 3948 3970.5
2833.5 2828 2822.5 2817 2811.5 2806 2800.5 2795 2789.5 2784 2778.5 2773 2767.5 2762 2756.5 2751 2745.5 2740 2734.5 2729 2723.5 2718 2712.5 2707 2701.5 2696 2690.5 2685 2679.5 2674 2668.5 2663 2657.5 2652 2646.5 2641 2635.5 2630 2624.5 2619 2641.5 2664 2686.5 2709 2731.5 2754 2776.5 2799 2821.5 2844 2866.5 2889 2911.5 2934 2956.5 2979 3001.5 3024 3046.5 3069 3091.5 3114 3136.5 3159 3181.5 3204 3226.5 3249 3271.5 3294 3316.5 3339 3361.5 3384 3406.5 3429 3451.5 3474 3496.5 3519 3541.5 3564 3586.5 3609 3631.5 3654 3676.5 3699 3721.5 3744 3766.5 3789 3811.5 3834 3856.5 3879 3901.5 3924 3946.5 3969
2860 2854.5 2849 2843.5 2838 2832.5 2827 2821.5 2816 2810.5 2805 2799.5 2794 2788.5 2783 2777.5 2772 2766.5 2761 2755.5 2750 2744.5 2739 2733.5 2728 2722.5 2717 2711.5 2706 2700.5 2695 2689.5 2684 2678.5 2673 2667.5 2662 2656.5 2651 2645.5 2640 2662.5 2685 2707.5 2730 2752.5 2775 2797.5 2820 2842.5 2865 2887.5 2910 2932.5 2955 2977.5 3000 3022.5 3045 3067.5 3090 3112.5 3135 3157.5 3180 3202.5 3225 3247.5 3270 3292.5 3315 3337.5 3360 3382.5 3405 3427.5 3450 3472.5 3495 3517.5 3540 3562.5 3585 3607.5 3630 3652.5 3675 3697.5 3720 3742.5 3765 3787.5 3810 3832.5 3855 3877.5 3900 3922.5 3945 3967.5
2886.5 2881 2875.5 2870 2864.5 2859 2853.5 2848 2842.5 2837 2831.5 2826 2820.5 2815 2809.5 2804 2798.5 2793 2787.5 2782 2776.5 2771 2765.5 2760 2754.5 2749 2743.5 2738 2732.5 2727 2721.5 2716 2710.5 2705 2699.5 2694 2688.5 2683 2677.5 2672 2666.5 2661 2683.5 2706 2728.5 2751 2773.5 2796 2818.5 2841 2863.5 2886 2908.5 2931 2953.5 2976 2998.5 3021 3043.5 3066 3088.5 3111 3133.5 3156 3178.5 3201 3223.5 3246 3268.5 3291 3313.5 3336 3358.5 3381 3403.5 3426 3448.5 3471 3493.5 3516 3538.5 3561 3583.5 3606 3628.5 3651 3673.5 3696 3718.5 3741 3763.5 3786 3808.5 3831 3853.5 3876 3898.5 3921 3943.5 3966
2913 2907.5 2902 2896.5 2891 2885.5 2880 2874.5 2869 2863.5 2858 2852.5 2847 2841.5 2836 2830.5 2825 2819.5 2814 2808.5 2803 2797.5 2792 2786.5 2781 2775.5 2770 2764.5 2759 2753.5 2748 2742.5 2737 2731.5 2726 2720.5 2715 2709.5 2704 2698.5 2693 2687.5 2682 2704.5 2727 2749.5 2772 2794.5 2817 2839.5 2862 2884.5 2907 2929.5 2952 2974.5 2997 3019.5 3042 3064.5 3087 3109.5 3132 3154.5 3177 3199.5 3222 3244.5 3267 3289.5 3312 3334.5 3357 3379.5 3402 3424.5 3447 3469.5 3492 3514.5 3537 3559.5 3582 3604.5 3627 3649.5 3672 3694.5 3717 3739.5 3762 3784.5 3807 3829.5 3852 3874.5 3897 3919.5 3942 3964.5
2939.5 2934 2928.5 2923 2917.5 2912 2906.5 2901 2895.5 2890 2884.5 2879 2873.5 2868 2862.5 2857 2851.5 2846 2840.5 2835 2829.5 2824 2818.5 2813 2807.5 2802 2796.5 2791 2785.5 2780 2774.5 2769 2763.5 2758 2752.5 2747 2741.5 2736 2730.5 2725 2719.5 2714 2708.5 2703 2725.5 2748 2770.5 2793 2815.5 2838 2860.5 2883 2905.5 2928 2950.5 2973 2995.5 3018 3040.5 3063 3085.5 3108 3130.5 3153 3175.5 3198 3220.5 3243 3265.5 3288 3310.5 3333 3355.5 3378 3400.5 3423 3445.5 3468 3490.5 3513 3535.5 3558 3580.5 3603 3625.5 3648 3670.5 3693 3715.5 3738 3760.5 3783 3805.5 3828 3850.5 3873 3895.5 3918 3940.5 3963
2966 2960.5 2955 2949.5 2944 2938.5 2933 2927.5 2922 2916.5 2911 2905.5 2900 2894.5 2889 2883.5 2878 2872.5 2867 2861.5 2856 2850.5 2845 2839.5 2834 2828.5 2823 2817.5 2812 2806.5 2801 2795.5 2790 2784.5 2779 2773.5 2768 2762.5 2757 2751.5 2746 2740.5 2735 2729.5 2724 2746.5 2769 2791.5 2814 2836.5 2859 2881.5 2904 2926.5 2949 2971.5 2994 3016.5 3039 3061.5 3084 3106.5 3129 3151.5 3174 3196.5 3219 3241.5 3264 3286.5 3309 3331.5 3354 3376.5 3399 3421.5 3444 3466.5 3489 3511.5 3534 3556.5 3579 3601.5 3624 3646.5 3669 3691.5 3714 3736.5 3759 3781.5 3804 3826.5 3849 3871.5 3894 3916.5 3939 3961.5
2992.5 2987 2981.5 2976 2970.5 2965 2959.5 2954 2948.5 2943 2937.5 2932 2926.5 2921 2915.5 2910 2904.5 2899 2893.5 2888 2882.5 2877 2871.5 2866 2860.5 2855 2849.5 2844 2838.5 2833 2827.5 2822 2816.5 2811 2805.5 2800 2794.5 2789 2783.5 2778 2772.5 2767 2761.5 2756 2750.5 2745 2767.5 2790 2812.5 2835 2857.5 2880 2902.5 2925 2947.5 2970 2992.5 3015 3037.5 3060 3082.5 3105 3127.5 3150 3172.5 3195 3217.5 3240 3262.5 3285 3307.5 3330 3352.5 3375 3397.5 3420 3442.5 3465 3487.5 3510 3532.5 3555 3577.5 3600 3622.5 3645 3667.5 3690 3712.5 3735 3757.5 3780 3802.5 3825 3847.5 3870 3892.5 3915 3937.5 3960
3019 3013.5 3008 3002.5 2997 2991.5 2986 2980.5 2975 2969.5 2964 2958.5 2953 2947.5 2942 2936.5 2931 2925.5 2920 2914.5 2909 2903.5 2898 2892.5 2887 2881.5 2876 2870.5 2865 2859.5 2854 2848.5 2843 2837.5 2832 2826.5 2821 2815.5 2810 2804.5 2799 2793.5 2788 2782.5 2777 2771.5 2766 2788.5 2811 2833.5 2856 2878.5 2901 2923.5 2946 2968.5 2991 3013.5 3036 3058.5 3081 3103.5 3126 3148.5 3171 3193.5 3216 3238.5 3261 3283.5 3306 3328.5 3351 3373.5 3396 3418.5 3441 3463.5 3486 3508.5 3531 3553.5 3576 3598.5 3621 3643.5 3666 3688.5 3711 3733.5 3756 3778.5 3801 3823.5 3846 3868.5 3891 3913.5 3936 3958.5
3045.5 3040 3034.5 3029 3023.5 3018 3012.5 3007 3001.5 2996 2990.5 2985 2979.5 2974 2968.5 2963 2957.5 2952 2946.5 2941 2935.5 2930 2924.5 2919 2913.5 2908 2902.5 2897 2891.5 2886 2880.5 2875 2869.5 2864 2858.5 2853 2847.5 2842 2836.5 2831 2825.5 2820 2814.5 2809 2803.5 2798 2792.5 2787 2809.5 2832 2854.5 2877 2899.5 2922 2944.5 2967 2989.5 3012 3034.5 3057 3079.5 3102 3124.5 3147 3169.5 3192 3214.5 3237 3259.5 3282 3304.5 3327 3349.5 3372 3394.5 3417 3439.5 3462 3484.5 3507 3529.5 3552 3574.5 3597 3619.5 3642 3664.5 3687 3709.5 3732 3754.5 3777 3799.5 3822 3844.5 3867 3889.5 3912 3934.5 3957
3072 3066.5 3061 3055.5 3050 3044.5 3039 3033.5 3028 3022.5 3017 3011.5 3006 3000.5 2995 2989.5 2984 2978.5 2973 2967.5 2962 2956.5 2951 2945.5 2940 2934.5 2929 2923.5 2918 2912.5 2907 2901.5 2896 2890.5 2885 2879.5 2874 2868.5 2863 2857.5 2852 2846.5 2841 2835.5 2830 2824.5 2819 2813.5 2808 2830.5 2853 2875.5 2898 2920.5 2943 2965.5 2988 3010.5 3033 3055.5 3078 3100.5 3123 3145.5 3168 3190.5 3213 3235.5 3258 3280.5 3303 3325.5 3348 3370.5 3393 3415.5 3438 3460.5 3483 3505.5 3528 3550.5 3573 3595.5 3618 3640.5 3663 3685.5 3708 3730.5 3753 3775.5 3798 3820.5 3843 3865.5 3888 3910.5 3933 3955.5
3098.5 3093 3087.5 3082 3076.5 3071 3065.5 3060 3054.5 3049 3043.5 3038 3032.5 3027 3021.5 3016 3010.5 3005 2999.5 2994 2988.5 2983 2977.5 2972 2966.5 2961 2955.5 2950 2944.5 2939 2933.5 2928 2922.5 2917 2911.5 2906 2900.5 2895 2889.5 2884 2878.5 2873 2867.5 2862 2856.5 2851 2845.5 2840 2834.5 2829 2851.5 2874 2896.5 2919 2941.5 2964 2986.5 3009 3031.5 3054 3076.5 3099 3121.5 3144 3166.5 3189 3211.5 3234 3256.5 3279 3301.5 3324 3346.5 3369 3391.5 3414 3436.5 3459 3481.5 3504 3526.5 3549 3571.5 3594 3616.5 3639 3661.5 3684 3706.5 3729 3751.5 3774 3796.5 3819 3841.5 3864 3886.5 3909 3931.5 3954
3125 3119.5 3114 3108.5 3103 3097.5 3092 3086.5 3081 3075.5 3070 3064.5 3059 3053.5 3048 3042.5 3037 3031.5 3026 3020.5 3015 3009.5 3004 2998.5 2993 2987.5 2982 2976.5 2971 2965.5 2960 2954.5 2949 2943.5 2938 2932.5 2927 2921.5 2916 2910.5 2905 2899.5 2894 2888.5 2883 2877.5 2872 2866.5 2861 2855.5 2850 2872.5 2895 2917.5 2940 2962.5 2985 3007.5 3030 3052.5 3075 3097.5 3120 3142.5 3165 3187.5 3210 3232.5 3255 3277.5 3300 3322.5 3345 3367.5 3390 3412.5 3435 3457.5 3480 3502.5 3525 3547.5 3570 3592.5 3615 3637.5 3660 3682.5 3705 3727.5 3750 3772.5 3795 3817.5 3840 3862.5 3885 3907.5 3930 3952.5
3151.5 3146 3140.5 3135 3129.5 3124 3118.5 3113 3107.5 3102 3096.5 3091 3085.5 3080 3074.5 3069 3063.5 3058 3052.5 3047 3041.5 3036 3030.5 3025 3019.5 3014 3008.5 3003 2997.5 2992 2986.5 2981 2975.5 2970 2964.5 2959 2953.5 2948 2942.5 2937 2931.5 2926 2920.5 2915 2909.5 2904 2898.5 2893 2887.5 2882 2876.5 2871 2893.5 2916 2938.5 2961 2983.5 3006 3028.5 3051 3073.5 3096 3118.5 3141 3163.5 3186 3208.5 3231 3253.5 3276 3298.5 3321 3343.5 3366 3388.5 3411 3433.5 3456 3478.5 3501 3523.5 3546 3568.5 3591 3613.5 3636 3658.5 3681 3703.5 3726 3748.5 3771 3793.5 3816 3838.5 3861 3883.5 3906 3928.5 3951
3178 3172.5 3167 3161.5 3156 3150.5 3145 3139.5 3134 3128.5 3123 3117.5 3112 3106.5 3101 3095.5 3090 3084.5 3079 3073.5 3068 3062.5 3057 3051.5 3046 3040.5 3035 3029.5 3024 3018.5 3013 3007.5 3002 2996.5 2991 2985.5 2980 2974.5 2969 2963.5 2958 2952.5 2947 2941.5 2936 2930.5 2925 2919.5 2914 2908.5 2903 2897.5 2892 2914.5 2937 2959.5 2982 3004.5 3027 3049.5 3072 3094.5 3117 3139.5 3162 3184.5 3207 3229.5 3252 3274.5 3297 3319.5 3342 3364.5 3387 3409.5 3432 3454.5 3477 3499.5 3522 3544.5 3567 3589.5 3612 3634.5 3657 3679.5 3702 3724.5 3747 3769.5 3792 3814.5 3837 3859.5 3882 3904.5 3927 3949.5
3204.5 3199 3193.5 3188 3182.5 3177 3171.5 3166 3160.5 3155 3149.5 3144 3138.5 3133 3127.5 3122 3116.5 3111 3105.5 3100 3094.5 3089 3083.5 3078 3072.5 3067 3061.5 3056 3050.5 3045 3039.5 3034 3028.5 3023 3017.5 3012 3006.5 3001 2995.5 2990 2984.5 2979 2973.5 2968 2962.5 2957 2951.5 2946 2940.5 2935 2929.5 2924 2918.5 2913 2935.5 2958 2980.5 3003 3025.5 3048 3070.5 3093 3115.5 3138 3160.5 3183 3205.5 3228 3250.5 3273 3295.5 3318 3340.5 3363 3385.5 3408 3430.5 3453 3475.5 3498 3520.5 3543 3565.5 3588 3610.5 3633 3655.5 3678 3700.5 3723 3745.5 3768 3790.5 3813 3835.5 3858 3880.5 3903 3925.5 3948
3231 3225.5 3220 3214.5 3209 3203.5 3198 3192.5 3187 3181.5 3176 3170.5 3165 3159.5 3154 3148.5 3143 3137.5 3132 3126.5 3121 3115.5 3110 3104.5 3099 3093.5 3088 3082.5 3077 3071.5 3066 3060.5 3055 3049.5 3044 3038.5 3033 3027.5 3022 3016.5 3011 3005.5 3000 2994.5 2989 2983.5 2978 2972.5 2967 2961.5 2956 2950.5 2945 2939.5 2934 2956.5 2979 3001.5 3024 3046.5 3069 3091.5 3114 3136.5 3159 3181.5 3204 3226.5 3249 3271.5 3294 3316.5 3339 3361.5 3384 3406.5 3429 3451.5 3474 3496.5 3519 3541.5 3564 3586.5 3609 3631.5 3654 3676.5 3699 3721.5 3744 3766.5 3789 3811.5 3834 3856.5 3879 3901.5 3924 3946.5
3257.5 3252 3246.5 3241 3235.5 3230 3224.5 3219 3213.5 3208 3202.5 3197 3191.5 3186 3180.5 3175 3169.5 3164 3158.5 3153 3147.5 3142 3136.5 3131 3125.5 3120 3114.5 3109 3103.5 3098 3092.5 3087 3081.5 3076 3070.5 3065 3059.5 3054 3048.5 3043 3037.5 3032 3026.5 3021 3015.5 3010 3004.5 2999 2993.5 2988 2982.5 2977 2971.5 2966 2960.5 2955 2977.5 3000 3022.5 3045 3067.5 3090 3112.5 3135 3157.5 3180 3202.5 3225 3247.5 3270 3292.5 3315 3337.5 3360 3382.5 3405 3427.5 3450 3472.5 3495 3517.5 3540 3562.5 3585 3607.5 3630 3652.5 3675 3697.5 3720 3742.5 3765 3787.5 3810 3832.5 3855 3877.5 3900 3922.5 3945
3284 3278.5 3273 3267.5 3262 3256.5 3251 3245.5 3240 3234.5 3229 3223.5 3218 3212.5 3207 3201.5 3196 3190.5 3185 3179.5 3174 3168.5 3163 3157.5 3152 3146.5 3141 3135.5 3130 3124.5 3119 3113.5 3108 3102.5 3097 3091.5 3086 3080.5 3075 3069.5 3064 3058.5 3053 3047.5 3042 3036.5 3031 3025.5 3020 3014.5 3009 3003.5 2998 2992.5 2987 2981.5 2976 2998.5 3021 3043.5 3066 3088.5 3111 3133.5 3156 3178.5 3201 3223.5 3246 3268.5 3291 3313.5 3336 3358.5 3381 3403.5 3426 3448.5 3471 3493.5 3516 3538.5 3561 3583.5 3606 3628.5 3651 3673.5 3696 3718.5 3741 3763.5 3786 3808.5 3831 3853.5 3876 3898.5 3921 3943.5
3310.5 3305 3299.5 3294 3288.5 3283 3277.5 3272 3266.5 3261 3255.5 3250 3244.5 3239 3233.5 3228 3222.5 3217 3211.5 3206 3200.5 3195 3189.5 3184 3178.5 3173 3167.5 3162 3156.5 3151 3145.5 3140 3134.5 3129 3123.5 3118 3112.5 3107 3101.5 3096 3090.5 3085 3079.5 3074 3068.5 3063 3057.5 3052 3046.5 3041 3035.5 3030 3024.5 3019 3013.5 3008 3002.5 2997 3019.5 3042 3064.5 3087 3109.5 3132 3154.5 3177 3199.5 3222 3244.5 3267 3289.5 3312 3334.5 3357 3379.5 3402 3424.5 3447 3469.5 3492 3514.5 3537 3559.5 3582 3604.5 3627 3649.5 3672 3694.5 3717 3739.5 3762 3784.5 3807 3829.5 3852 3874.5 3897 3919.5 3942
3337 3331.5 3326 3320.5 3315 3309.5 3304 3298.5 3293 3287.5 3282 3276.5 3271 3265.5 3260 3254.5 3249 3243.5 3238 3232.5 3227 3221.5 3216 3210.5 3205 3199.5 3194 3188.5 3183 3177.5 3172 3166.5 3161 3155.5 3150 3144.5 3139 3133.5 3128 3122.5 3117 3111.5 3106 3100.5 3095 3089.5 3084 3078.5 3073 3067.5 3062 3056.5 3051 3045.5 3040 3034.5 3029 3023.5 3018 3040.5 3063 3085.5 3108 3130.5 3153 3175.5 3198 3220.5 3243 3265.5 3288 3310.5 3333 3355.5 3378 3400.5 3423 3445.5 3468 3490.5 3513 3535.5 3558 3580.5 3603 3625.5 3648 3670.5 3693 3715.5 3738 3760.5 3783 3805.5 3828 3850.5 3873 3895.5 3918 3940.5
3363.5 3358 3352.5 3347 3341.5 3336 3330.5 3325 3319.5 3314 3308.5 3303 3297.5 3292 3286.5 3281 3275.5 3270 3264.5 3259 3253.5 3248 3242.5 3237 3231.5 3226 3220.5 3215 3209.5 3204 3198.5 3193 3187.5 3182 3176.5 3171 3165.5 3160 3154.5 3149 3143.5 3138 3132.5 3127 3121.5 3116 3110.5 3105 3099.5 3094 3088.5 3083 3077.5 3072 3066.5 3061 3055.5 3050 3044.5 3039 3061.5 3084 3106.5 3129 3151.5 3174 3196.5 3219 3241.5 3264 3286.5 3309 3331.5 3354 3376.5 3399 3421.5 3444 3466.5 3489 3511.5 3534 3556.5 3579 3601.5 3624 3646.5 3669 3691.5 3714 3736.5 3759 3781.5 3804 3826.5 3849 3871.5 3894 3916.5 3939
3390 3384.5 3379 3373.5 3368 3362.5 3357 3351.5 3346 3340.5 3335 3329.5 3324 3318.5 3313 3307.5 3302 3296.5 3291 3285.5 3280 3274.5 3269 3263.5 3258 3252.5 3247 3241.5 3236 3230.5 3225 3219.5 3214 3208.5 3203 3197.5 3192 3186.5 3181 3175.5 3170 3164.5 3159 3153.5 3148 3142.5 3137 3131.5 3126 3120.5 3115 3109.5 3104 3098.5 3093 3087.5 3082 3076.5 3071 3065.5 3060 3082.5 3105 3127.5 3150 3172.5 3195 3217.5 3240 3262.5 3285 3307.5 3330 3352.5 3375 3397.5 3420 3442.5 3465 3487.5 3510 3532.5 3555 3577.5 3600 3622.5 3645 3667.5 3690 3712.5 3735 3757.5 3780 3802.5 3825 3847.5 3870 3892.5 3915 3937.5
3416.5 3411 3405.5 3400 3394.5 3389 3383.5 3378 3372.5 3367 3361.5 3356 3350.5 3345 3339.5 3334 3328.5 3323 3317.5 3312 3306.5 3301 3295.5 3290 3284.5 3279 3273.5 3268 3262.5 3257 3251.5 3246 3240.5 3235 3229.5 3224 3218.5 3213 3207.5 3202 3196.5 3191 3185.5 3180 3174.5 3169 3163.5 3158 3152.5 3147 3141.5 3136 3130.5 3125 3119.5 3114 3108.5 3103 3097.5 3092 3086.5 3081 3103.5 3126 3148.5 3171 3193.5 3216 3238.5 3261 3283.5 3306 3328.5 3351 3373.5 3396 3418.5 3441 3463.5 3486 3508.5 3531 3553.5 3576 3598.5 3621 3643.5 3666 3688.5 3711 3733.5 3756 3778.5 3801 3823.5 3846 3868.5 3891 3913.5 3936
3443 3437.5 3432 3426.5 3421 3415.5 3410 3404.5 3399 3393.5 3388 3382.5 3377 3371.5 3366 3360.5 3355 3349.5 3344 3338.5 3333 3327.5 3322 3316.5 3311 3305.5 3300 3294.5 3289 3283.5 3278 3272.5 3267 3261.5 3256 3250.5 3245 3239.5 3234 3228.5 3223 3217.5 3212 3206.5 3201 3195.5 3190 3184.5 3179 3173.5 3168 3162.5 3157 3151.5 3146 3140.5 3135 3129.5 3124 3118.5 3113 3107.5 3102 3124.5 3147 3169.5 3192 3214.5 3237 3259.5 3282 3304.5 3327 3349.5 3372 3394.5 3417 3439.5 3462 3484.5 3507 3529.5 3552 3574.5 3597 3619.5 3642 3664.5 3687 3709.5 3732 3754.5 3777 3799.5 3822 3844.5 3867 3889.5 3912 3934.5
3469.5 3464 3458.5 3453 3447.5 3442 3436.5 3431 3425.5 3420 3414.5 3409 3403.5 3398 3392.5 3387 3381.5 3376 3370.5 3365 3359.5 3354 3348.5 3343 3337.5 3332 3326.5 3321 3315.5 3310 3304.5 3299 3293.5 3288 3282.5 3277 3271.5 3266 3260.5 3255 3249.5 3244 3238.5 3233 3227.5 3222 3216.5 3211 3205.5 3200 3194.5 3189 3183.5 3178 3172.5 3167 3161.5 3156 3150.5 3145 3139.5 3134 3128.5 3123 3145.5 3168 3190.5 3213 3235.5 3258 3280.5 3303 3325.5 3348 3370.5 3393 3415.5 3438 3460.5 3483 3505.5 3528 3550.5 3573 3595.5 3618 3640.5 3663 3685.5 3708 3730.5 3753 3775.5 3798 3820.5 3843 3865.5 3888 3910.5 3933
3496 3490.5 3485 3479.5 3474 3468.5 3463 3457.5 3452 3446.5 3441 3435.5 3430 3424.5 3419 3413.5 3408 3402.5 3397 3391.5 3386 3380.5 3375 3369.5 3364 3358.5 3353 3347.5 3342 3336.5 3331 3325.5 3320 3314.5 3309 3303.5 3298 3292.5 3287 3281.5 3276 3270.5 3265 3259.5 3254 3248.5 3243 3237.5 3232 3226.5 3221 3215.5 3210 3204.5 3199 3193.5 3188 3182.5 3177 3171.5 3166 3160.5 3155 3149.5 3144 3166.5 3189 3211.5 3234 3256.5 3279 3301.5 3324 3346.5 3369 3391.5 3414 3436.5 3459 3481.5 3504 3526.5 3549 3571.5 3594 3616.5 3639 3661.5 3684 3706.5 3729 3751.5 3774 3796.5 3819 3841.5 3864 3886.5 3909 3931.5
3522.5 3517 3511.5 3506 3500.5 3495 3489.5 3484 3478.5 3473 3467.5 3462 3456.5 3451 3445.5 3440 3434.5 3429 3423.5 3418 3412.5 3407 3401.5 3396 3390.5 3385 3379.5 3374 3368.5 3363 3357.5 3352 3346.5 3341 3335.5 3330 3324.5 3319 3313.5 3308 3302.5 3297 3291.5 3286 3280.5 3275 3269.5 3264 3258.5 3253 3247.5 3242 3236.5 3231 3225.5 3220 3214.5 3209 3203.5 3198 3192.5 3187 3181.5 3176 3170.5 3165 3187.5 3210 3232.5 3255 3277.5 3300 3322.5 3345 3367.5 3390 3412.5 3435 3457.5 3480 3502.5 3525 3547.5 3570 3592.5 3615 3637.5 3660 3682.5 3705 3727.5 3750 3772.5 3795 3817.5 3840 3862.5 3885 3907.5 3930
3549 3543.5 3538 3532.5 3527 3521.5 3516 3510.5 3505 3499.5 3494 3488.5 3483 3477.5 3472 3466.5 3461 3455.5 3450 3444.5 3439 3433.5 3428 3422.5 3417 3411.5 3406 3400.5 3395 3389.5 3384 3378.5 3373 3367.5 3362 3356.5 3351 3345.5 3340 3334.5 3329 3323.5 3318 3312.5 3307 3301.5 3296 3290.5 3285 3279.5 3274 3268.5 3263 3257.5 3252 3246.5 3241 3235.5 3230 3224.5 3219 3213.5 3208 3202.5 3197 3191.5 3186 3208.5 3231 3253.5 3276 3298.5 3321 3343.5 3366 3388.5 3411 3433.5 3456 3478.5 3501 3523.5 3546 3568.5 3591 3613.5 3636 3658.5 3681 3703.5 3726 3748.5 3771 3793.5 3816 3838.5 3861 3883.5 3906 3928.5
3575.5 3570 3564.5 3559 3553.5 3548 3542.5 3537 3531.5 3526 3520.5 3515 3509.5 3504 3498.5 3493 3487.5 3482 3476.5 3471 3465.5 3460 3454.5 3449 3443.5 3438 3432.5 3427 3421.5 3416 3410.5 3405 3399.5 3394 3388.5 3383 3377.5 3372 3366.5 3361 3355.5 3350 3344.5 3339 3333.5 3328 3322.5 3317 3311.5 3306 3300.5 3295 3289.5 3284 3278.5 3273 3267.5 3262 3256.5 3251 3245.5 3240 3234.5 3229 3223.5 3218 3212.5 3207 3229.5 3252 3274.5 3297 3319.5 3342 3364.5 3387 3409.5 3432 3454.5 3477 3499.5 3522 3544.5 3567 3589.5 3612 3634.5 3657 3679.5 3702 3724.5 3747 3769.5 3792 3814.5 3837 3859.5 3882 3904.5 3927
3602 3596.5 3591 3585.5 3580 3574.5 3569 3563.5 3558 3552.5 3547 3541.5 3536 3530.5 3525 3519.5 3514 3508.5 3503 3497.5 3492 3486.5 3481 3475.5 3470 3464.5 3459 3453.5 3448 3442.5 3437 3431.5 3426 3420.5 3415 3409.5 3404 3398.5 3393 3387.5 3382 3376.5 3371 3365.5 3360 3354.5 3349 3343.5 3338 3332.5 3327 3321.5 3316 3310.5 3305 3299.5 3294 3288.5 3283 3277.5 3272 3266.5 3261 3255.5 3250 3244.5 3239 3233.5 3228 3250.5 3273 3295.5 3318 3340.5 3363 3385.5 3408 3430.5 3453 3475.5 3498 3520.5 3543 3565.5 3588 3610.5 3633 3655.5 3678 3700.5 3723 3745.5 3768 3790.5 3813 3835.5 3858 3880.5 3903 3925.5
3628.5 3623 3617.5 3612 3606.5 3601 3595.5 3590 3584.5 3579 3573.5 3568 3562.5 3557 3551.5 3546 3540.5 3535 3529.5 3524 3518.5 3513 3507.5 3502 3496.5 3491 3485.5 3480 3474.5 3469 3463.5 3458 3452.5 3447 3441.5 3436 3430.5 3425 3419.5 3414 3408.5 3403 3397.5 3392 3386.5 3381 3375.5 3370 3364.5 3359 3353.5 3348 3342.5 3337 3331.5 3326 3320.5 3315 3309.5 3304 3298.5 3293 3287.5 3282 3276.5 3271 3265.5 3260 3254.5 3249 3271.5 3294 3316.5 3339 3361.5 3384 3406.5 3429 3451.5 3474 3496.5 3519 3541.5 3564 3586.5 3609 3631.5 3654 3676.5 3699 3721.5 3744 3766.5 3789 3811.5 3834 3856.5 3879 3901.5 3924
3655 3649.5 3644 3638.5 3633 3627.5 3622 3616.5 3611 3605.5 3600 3594.5 3589 3583.5 3578 3572.5 3567 3561.5 3556 3550.5 3545 3539.5 3534 3528.5 3523 3517.5 3512 3506.5 3501 3495.5 3490 3484.5 3479 3473.5 3468 3462.5 3457 3451.5 3446 3440.5 3435 3429.5 3424 3418.5 3413 3407.5 3402 3396.5 3391 3385.5 3380 3374.5 3369 3363.5 3358 3352.5 3347 3341.5 3336 3330.5 3325 3319.5 3314 3308.5 3303 3297.5 3292 3286.5 3281 3275.5 3270 3292.5 3315 3337.5 3360 3382.5 3405 3427.5 3450 3472.5 3495 3517.5 3540 3562.5 3585 3607.5 3630 3652.5 3675 3697.5 3720 3742.5 3765 3787.5 3810 3832.5 3855 3877.5 3900 3922.5
3681.5 3676 3670.5 3665 3659.5 3654 3648.5 3643 3637.5 3632 3626.5 3621 3615.5 3610 3604.5 3599 3593.5 3588 3582.5 3577 3571.5 3566 3560.5 3555 3549.5 3544 3538.5 3533 3527.5 3522 3516.5 3511 3505.5 3500 3494.5 3489 3483.5 3478 3472.5 3467 3461.5 3456 3450.5 3445 3439.5 3434 3428.5 3423 3417.5 3412 3406.5 3401 3395.5 3390 3384.5 3379 3373.5 3368 3362.5 3357 3351.5 3346 3340.5 3335 3329.5 3324 3318.5 3313 3307.5 3302 3296.5 3291 3313.5 3336 3358.5 3381 3403.5 3426 3448.5 3471 3493.5 3516 3538.5 3561 3583.5 3606 3628.5 3651 3673.5 3696 3718.5 3741 3763.5 3786 3808.5 3831 3853.5 3876 3898.5 3921
3708 3702.5 3697 3691.5 3686 3680.5 3675 3669.5 3664 3658.5 3653 3647.5 3642 3636.5 3631 3625.5 3620 3614.5 3609 3603.5 3598 3592.5 3587 3581.5 3576 3570.5 3565 3559.5 3554 3548.5 3543 3537.5 3532 3526.5 3521 3515.5 3510 3504.5 3499 3493.5 3488 3482.5 3477 3471.5 3466 3460.5 3455 3449.5 3444 3438.5 3433 3427.5 3422 3416.5 3411 3405.5 3400 3394.5 3389 3383.5 3378 3372.5 3367 3361.5 3356 3350.5 3345 3339.5 3334 3328.5 3323 3317.5 3312 3334.5 3357 3379.5 3402 3424.5 3447 3469.5 3492 3514.5 3537 3559.5 3582 3604.5 3627 3649.5 3672 3694.5 3717 3739.5 3762 3784.5 3807 3829.5 3852 3874.5 3897 3919.5
3734.5 3729 3723.5 3718 3712.5 3707 3701.5 3696 3690.5 3685 3679.5 3674 3668.5 3663 3657.5 3652 3646.5 3641 3635.5 3630 3624.5 3619 3613.5 3608 3602.5 3597 3591.5 3586 3580.5 3575 3569.5 3564 3558.5 3553 3547.5 3542 3536.5 3531 3525.5 3520 3514.5 3509 3503.5 3498 3492.5 3487 3481.5 3476 3470.5 3465 3459.5 3454 3448.5 3443 3437.5 3432 3426.5 3421 3415.5 3410 3404.5 3399 3393.5 3388 3382.5 3377 3371.5 3366 3360.5 3355 3349.5 3344 3338.5 3333 3355.5 3378 3400.5 3423 3445.5 3468 3490.5 3513 3535.5 3558 3580.5 3603 3625.5 3648 3670.5 3693 3715.5 3738 3760.5 3783 3805.5 3828 3850.5 3873 3895.5 3918
3761 3755.5 3750 3744.5 3739 3733.5 3728 3722.5 3717 3711.5 3706 3700.5 3695 3689.5 3684 3678.5 3673 3667.5 3662 3656.5 3651 3645.5 3640 3634.5 3629 3623.5 3618 3612.5 3607 3601.5 3596 3590.5 3585 3579.5 3574 3568.5 3563 3557.5 3552 3546.5 3541 3535.5 3530 3524.5 3519 3513.5 3508 3502.5 3497 3491.5 3486 3480.5 3475 3469.5 3464 3458.5 3453 3447.5 3442 3436.5 3431 3425.5 3420 3414.5 3409 3403.5 3398 3392.5 3387 3381.5 3376 3370.5 3365 3359.5 3354 3376.5 3399 3421.5 3444 3466.5 3489 3511.5 3534 3556.5 3579 3601.5 3624 3646.5 3669 3691.5 3714 3736.5 3759 3781.5 3804 3826.5 3849 3871.5 3894 3916.5
3787.5 3782 3776.5 3771 3765.5 3760 3754.5 3749 3743.5 3738 3732.5 3727 3721.5 3716 3710.5 3705 3699.5 3694 3688.5 3683 3677.5 3672 3666.5 3661 3655.5 3650 3644.5 3639 3633.5 3628 3622.5 3617 3611.5 3606 3600.5 3595 3589.5 3584 3578.5 3573 3567.5 3562 3556.5 3551 3545.5 3540 3534.5 3529 3523.5 3518 3512.5 3507 3501.5 3496 3490.5 3485 3479.5 3474 3468.5 3463 3457.5 3452 3446.5 3441 3435.5 3430 3424.5 3419 3413.5 3408 3402.5 3397 3391.5 3386 3380.5 3375 3397.5 3420 3442.5 3465 3487.5 3510 3532.5 3555 3577.5 3600 3622.5 3645 3667.5 3690 3712.5 3735 3757.5 3780 3802.5 3825 3847.5 3870 3892.5 3915
3814 3808.5 3803 3797.5 3792 3786.5 3781 3775.5 3770 3764.5 3759 3753.5 3748 3742.5 3737 3731.5 3726 3720.5 3715 3709.5 3704 3698.5 3693 3687.5 3682 3676.5 3671 3665.5 3660 3654.5 3649 3643.5 3638 3632.5 3627 3621.5 3616 3610.5 3605 3599.5 3594 3588.5 3583 3577.5 3572 3566.5 3561 3555.5 3550 3544.5 3539 3533.5 3528 3522.5 3517 3511.5 3506 3500.5 3495 3489.5 3484 3478.5 3473 3467.5 3462 3456.5 3451 3445.5 3440 3434.5 3429 3423.5 3418 3412.5 3407 3401.5 3396 3418.5 3441 3463.5 3486 3508.5 3531 3553.5 3576 3598.5 3621 3643.5 3666 3688.5 3711 3733.5 3756 3778.5 3801 3823.5 3846 3868.5 3891 3913.5
3840.5 3835 3829.5 3824 3818.5 3813 3807.5 3802 3796.5 3791 3785.5 3780 3774.5 3769 3763.5 3758 3752.5 3747 3741.5 3736 3730.5 3725 3719.5 3714 3708.5 3703 3697.5 3692 3686.5 3681 3675.5 3670 3664.5 3659 3653.5 3648 3642.5 3637 3631.5 3626 3620.5 3615 3609.5 3604 3598.5 3593 3587.5 3582 3576.5 3571 3565.5 3560 3554.5 3549 3543.5 3538 3532.5 3527 3521.5 3516 3510.5 3505 3499.5 3494 3488.5 3483 3477.5 3472 3466.5 3461 3455.5 3450 3444.5 3439 3433.5 3428 3422.5 3417 3439.5 3462 3484.5 3507 3529.5 3552 3574.5 3597 3619.5 3642 3664.5 3687 3709.5 3732 3754.5 3777 3799.5 3822 3844.5 3867 3889.5 3912
3867 3861.5 3856 3850.5 3845 3839.5 3834 3828.5 3823 3817.5 3812 3806.5 3801 3795.5 3790 3784.5 3779 3773.5 3768 3762.5 3757 3751.5 3746 3740.5 3735 3729.5 3724 3718.5 3713 3707.5 3702 3696.5 3691 3685.5 3680 3674.5 3669 3663.5 3658 3652.5 3647 3641.5 3636 3630.5 3625 3619.5 3614 3608.5 3603 3597.5 3592 3586.5 3581 3575.5 3570 3564.5 3559 3553.5 3548 3542.5 3537 3531.5 3526 3520.5 3515 3509.5 3504 3498.5 3493 3487.5 3482 3476.5 3471 3465.5 3460 3454.5 3449 3443.5 3438 3460.5 3483 3505.5 3528 3550.5 3573 3595.5 3618 3640.5 3663 3685.5 3708 3730.5 3753 3775.5 3798 3820.5 3843 3865.5 3888 3910.5
3893.5 3888 3882.5 3877 3871.5 3866 3860.5 3855 3849.5 3844 3838.5 3833 3827.5 3822 3816.5 3811 3805.5 3800 3794.5 3789 3783.5 3778 3772.5 3767 3761.5 3756 3750.5 3745 3739.5 3734 3728.5 3723 3717.5 3712 3706.5 3701 3695.5 3690 3684.5 3679 3673.5 3668 3662.5 3657 3651.5 3646 3640.5 3635 3629.5 3624 3618.5 3613 3607.5 3602 3596.5 3591 3585.5 3580 3574.5 3569 3563.5 3558 3552.5 3547 3541.5 3536 3530.5 3525 3519.5 3514 3508.5 3503 3497.5 3492 3486.5 3481 3475.5 3470 3464.5 3459 3481.5 3504 3526.5 3549 3571.5 3594 3616.5 3639 3661.5 3684 3706.5 3729 3751.5 3774 3796.5 3819 3841.5 3864 3886.5 3909
3920 3914.5 3909 3903.5 3898 3892.5 3887 3881.5 3876 3870.5 3865 3859.5 3854 3848.5 3843 3837.5 3832 3826.5 3821 3815.5 3810 3804.5 3799 3793.5 3788 3782.5 3777 3771.5 3766 3760.5 3755 3749.5 3744 3738.5 3733 3727.5 3722 3716.5 3711 3705.5 3700 3694.5 3689 3683.5 3678 3672.5 3667 3661.5 3656 3650.5 3645 3639.5 3634 3628.5 3623 3617.5 3612 3606.5 3601 3595.5 3590 3584.5 3579 3573.5 3568 3562.5 3557 3551.5 3546 3540.5 3535 3529.5 3524 3518.5 3513 3507.5 3502 3496.5 3491 3485.5 3480 3502.5 3525 3547.5 3570 3592.5 3615 3637.5 3660 3682.5 3705 3727.5 3750 3772.5 3795 3817.5 3840 3862.5 3885 3907.5
3946.5 3941 3935.5 3930 3924.5 3919 3913.5 3908 3902.5 3897 3891.5 3886 3880.5 3875 3869.5 3864 3858.5 3853 3847.5 3842 3836.5 3831 3825.5 3820 3814.5 3809 3803.5 3798 3792.5 3787 3781.5 3776 3770.5 3765 3759.5 3754 3748.5 3743 3737.5 3732 3726.5 3721 3715.5 3710 3704.5 3699 3693.5 3688 3682.5 3677 3671.5 3666 3660.5 3655 3649.5 3644 3638.5 3633 3627.5 3622 3616.5 3611 3605.5 3600 3594.5 3589 3583.5 3578 3572.5 3567 3561.5 3556 3550.5 3545 3539.5 3534 3528.5 3523 3517.5 3512 3506.5 3501 3523.5 3546 3568.5 3591 3613.5 3636 3658.5 3681 3703.5 3726 3748.5 3771 3793.5 3816 3838.5 3861 3883.5 3906
3973 3967.5 3962 3956.5 3951 3945.5 3940 3934.5 3929 3923.5 3918 3912.5 3907 3901.5 3896 3890.5 3885 3879.5 3874 3868.5 3863 3857.5 3852 3846.5 3841 3835.5 3830 3824.5 3819 3813.5 3808 3802.5 3797 3791.5 3786 3780.5 3775 3769.5 3764 3758.5 3753 3747.5 3742 3736.5 3731 3725.5 3720 3714.5 3709 3703.5 3698 3692.5 3687 3681.5 3676 3670.5 3665 3659.5 3654 3648.5 3643 3637.5 3632 3626.5 3621 3615.5 3610 3604.5 3599 3593.5 3588 3582.5 3577 3571.5 3566 3560.5 3555 3549.5 3544 3538.5 3533 3527.5 3522 3544.5 3567 3589.5 3612 3634.5 3657 3679.5 3702 3724.5 3747 3769.5 3792 3814.5 3837 3859.5 3882 3904.5
3999.5 3994 3988.5 3983 3977.5 3972 3966.5 3961 3955.5 3950 3944.5 3939 3933.5 3928 3922.5 3917 3911.5 3906 3900.5 3895 3889.5 3884 3878.5 3873 3867.5 3862 3856.5 3851 3845.5 3840 3834.5 3829 3823.5 3818 3812.5 3807 3801.5 3796 3790.5 3785 3779.5 3774 3768.5 3763 3757.5 3752 3746.5 3741 3735.5 3730 3724.5 3719 3713.5 3708 3702.5 3697 3691.5 3686 3680.5 3675 3669.5 3664 3658.5 3653 3647.5 3642 3636.5 3631 3625.5 3620 3614.5 3609 3603.5 3598 3592.5 3587 3581.5 3576 3570.5 3565 3559.5 3554 3548.5 3543 3565.5 3588 3610.5 3633 3655.5 3678 3700.5 3723 3745.5 3768 3790.5 3813 3835.5 3858 3880.5 3903
4026 4020.5 4015 4009.5 4004 3998.5 3993 3987.5 3982 3976.5 3971 3965.5 3960 3954.5 3949 3943.5 3938 3932.5 3927 3921.5 3916 3910.5 3905 3899.5 3894 3888.5 3883 3877.5 3872 3866.5 3861 3855.5 3850 3844.5 3839 3833.5 3828 3822.5 3817 3811.5 3806 3800.5 3795 3789.5 3784 3778.5 3773 3767.5 3762 3756.5 3751 3745.5 3740 3734.5 3729 3723.5 3718 3712.5 3707 3701.5 3696 3690.5 3685 3679.5 3674 3668.5 3663 3657.5 3652 3646.5 3641 3635.5 3630 3624.5 3619 3613.5 3608 3602.5 3597 3591.5 3586 3580.5 3575 3569.5 3564 3586.5 3609 3631.5 3654 3676.5 3699 3721.5 3744 3766.5 3789 3811.5 3834 3856.5 3879 3901.5
4052.5 4047 4041.5 4036 4030.5 4025 4019.5 4014 4008.5 4003 3997.5 3992 3986.5 3981 3975.5 3970 3964.5 3959 3953.5 3948 3942.5 3937 3931.5 3926 3920.5 3915 3909.5 3904 3898.5 3893 3887.5 3882 3876.5 3871 3865.5 3860 3854.5 3849 3843.5 3838 3832.5 3827 3821.5 3816 3810.5 3805 3799.5 3794 3788.5 3783 3777.5 3772 3766.5 3761 3755.5 3750 3744.5 3739 3733.5 3728 3722.5 3717 3711.5 3706 3700.5 3695 3689.5 3684 3678.5 3673 3667.5 3662 3656.5 3651 3645.5 3640 3634.5 3629 3623.5 3618 3612.5 3607 3601.5 3596 3590.5 3585 3607.5 3630 3652.5 3675 3697.5 3720 3742.5 3765 3787.5 3810 3832.5 3855 3877.5 3900
4079 4073.5 4068 4062.5 4057 4051.5 4046 4040.5 4035 4029.5 4024 4018.5 4013 4007.5 4002 3996.5 3991 3985.5 3980 3974.5 3969 3963.5 3958 3952.5 3947 3941.5 3936 3930.5 3925 3919.5 3914 3908.5 3903 3897.5 3892 3886.5 3881 3875.5 3870 3864.5 3859 3853.5 3848 3842.5 3837 3831.5 3826 3820.5 3815 3809.5 3804 3798.5 3793 3787.5 3782 3776.5 3771 3765.5 3760 3754.5 3749 3743.5 3738 3732.5 3727 3721.5 3716 3710.5 3705 3699.5 3694 3688.5 3683 3677.5 3672 3666.5 3661 3655.5 3650 3644.5 3639 3633.5 3628 3622.5 3617 3611.5 3606 3628.5 3651 3673.5 3696 3718.5 3741 3763.5 3786 3808.5 3831 3853.5 3876 3898.5
4105.5 4100 4094.5 4089 4083.5 4078 4072.5 4067 4061.5 4056 4050.5 4045 4039.5 4034 4028.5 4023 4017.5 4012 4006.5 4001 3995.5 3990 3984.5 3979 3973.5 3968 3962.5 3957 3951.5 3946 3940.5 3935 3929.5 3924 3918.5 3913 3907.5 3902 3896.5 3891 3885.5 3880 3874.5 3869 3863.5 3858 3852.5 3847 3841.5 3836 3830.5 3825 3819.5 3814 3808.5 3803 3797.5 3792 3786.5 3781 3775.5 3770 3764.5 3759 3753.5 3748 3742.5 3737 3731.5 3726 3720.5 3715 3709.5 3704 3698.5 3693 3687.5 3682 3676.5 3671 3665.5 3660 3654.5 3649 3643.5 3638 3632.5 3627 3649.5 3672 3694.5 3717 3739.5 3762 3784.5 3807 3829.5 3852 3874.5 3897
4132 4126.5 4121 4115.5 4110 4104.5 4099 4093.5 4088 4082.5 4077 4071.5 4066 4060.5 4055 4049.5 4044 4038.5 4033 4027.5 4022 4016.5 4011 4005.5 4000 3994.5 3989 3983.5 3978 3972.5 3967 3961.5 3956 3950.5 3945 3939.5 3934 3928.5 3923 3917.5 3912 3906.5 3901 3895.5 3890 3884.5 3879 3873.5 3868 3862.5 3857 3851.5 3846 3840.5 3835 3829.5 3824 3818.5 3813 3807.5 3802 3796.5 3791 3785.5 3780 3774.5 3769 3763.5 3758 3752.5 3747 3741.5 3736 3730.5 3725 3719.5 3714 3708.5 3703 3697.5 3692 3686.5 3681 3675.5 3670 3664.5 3659 3653.5 3648 3670.5 3693 3715.5 3738 3760.5 3783 3805.5 3828 3850.5 3873 3895.5
4158.5 4153 4147.5 4142 4136.5 4131 4125.5 4120 4114.5 4109 4103.5 4098 4092.5 4087 4081.5 4076 4070.5 4065 4059.5 4054 4048.5 4043 4037.5 4032 4026.5 4021 4015.5 4010 4004.5 3999 3993.5 3988 3982.5 3977 3971.5 3966 3960.5 3955 3949.5 3944 3938.5 3933 3927.5 3922 3916.5 3911 3905.5 3900 3894.5 3889 3883.5 3878 3872.5 3867 3861.5 3856 3850.5 3845 3839.5 3834 3828.5 3823 3817.5 3812 3806.5 3801 3795.5 3790 3784.5 3779 3773.5 3768 3762.5 3757 3751.5 3746 3740.5 3735 3729.5 3724 3718.5 3713 3707.5 3702 3696.5 3691 3685.5 3680 3674.5 3669 3691.5 3714 3736.5 3759 3781.5 3804 3826.5 3849 3871.5 3894
4185 4179.5 4174 4168.5 4163 4157.5 4152 4146.5 4141 4135.5 4130 4124.5 4119 4113.5 4108 4102.5 4097 4091.5 4086 4080.5 4075 4069.5 4064 4058.5 4053 4047.5 4042 4036.5 4031 4025.5 4020 4014.5 4009 4003.5 3998 3992.5 3987 3981.5 3976 3970.5 3965 3959.5 3954 3948.5 3943 3937.5 3932 3926.5 3921 3915.5 3910 3904.5 3899 3893.5 3888 3882.5 3877 3871.5 3866 3860.5 3855 3849.5 3844 3838.5 3833 3827.5 3822 3816.5 3811 3805.5 3800 3794.5 3789 3783.5 3778 3772.5 3767 3761.5 3756 3750.5 3745 3739.5 3734 3728.5 3723 3717.5 3712 3706.5 3701 3695.5 3690 3712.5 3735 3757.5 3780 3802.5 3825 3847.5 3870 3892.5
4211.5 4206 4200.5 4195 4189.5 4184 4178.5 4173 4167.5 4162 4156.5 4151 4145.5 4140 4134.5 4129 4123.5 4118 4112.5 4107 4101.5 4096 4090.5 4085 4079.5 4074 4068.5 4063 4057.5 4052 4046.5 4041 4035.5 4030 4024.5 4019 4013.5 4008 4002.5 3997 3991.5 3986 3980.5 3975 3969.5 3964 3958.5 3953 3947.5 3942 3936.5 3931 3925.5 3920 3914.5 3909 3903.5 3898 3892.5 3887 3881.5 3876 3870.5 3865 3859.5 3854 3848.5 3843 3837.5 3832 3826.5 3821 3815.5 3810 3804.5 3799 3793.5 3788 3782.5 3777 3771.5 3766 3760.5 3755 3749.5 3744 3738.5 3733 3727.5 3722 3716.5 3711 3733.5 3756 3778.5 3801 3823.5 3846 3868.5 3891
4238 4232.5 4227 4221.5 4216 4210.5 4205 4199.5 4194 4188.5 4183 4177.5 4172 4166.5 4161 4155.5 4150 4144.5 4139 4133.5 4128 4122.5 4117 4111.5 4106 4100.5 4095 4089.5 4084 4078.5 4073 4067.5 4062 4056.5 4051 4045.5 4040 4034.5 4029 4023.5 4018 4012.5 4007 4001.5 3996 3990.5 3985 3979.5 3974 3968.5 3963 3957.5 3952 3946.5 3941 3935.5 3930 3924.5 3919 3913.5 3908 3902.5 3897 3891.5 3886 3880.5 3875 3869.5 3864 3858.5 3853 3847.5 3842 3836.5 3831 3825.5 3820 3814.5 3809 3803.5 3798 3792.5 3787 3781.5 3776 3770.5 3765 3759.5 3754 3748.5 3743 3737.5 3732 3754.5 3777 3799.5 3822 3844.5 3867 3889.5
4264.5 4259 4253.5 4248 4242.5 4237 4231.5 4226 4220.5 4215 4209.5 4204 4198.5 4193 4187.5 4182 4176.5 4171 4165.5 4160 4154.5 4149 4143.5 4138 4132.5 4127 4121.5 4116 4110.5 4105 4099.5 4094 4088.5 4083 4077.5 4072 4066.5 4061 4055.5 4050 4044.5 4039 4033.5 4028 4022.5 4017 4011.5 4006 4000.5 3995 3989.5 3984 3978.5 3973 3967.5 3962 3956.5 3951 3945.5 3940 3934.5 3929 3923.5 3918 3912.5 3907 3901.5 3896 3890.5 3885 3879.5 3874 3868.5 3863 3857.5 3852 3846.5 3841 3835.5 3830 3824.5 3819 3813.5 3808 3802.5 3797 3791.5 3786 3780.5 3775 3769.5 3764 3758.5 3753 3775.5 3798 3820.5 3843 3865.5 3888
4291 4285.5 4280 4274.5 4269 4263.5 4258 4252.5 4247 4241.5 4236 4230.5 4225 4219.5 4214 4208.5 4203 4197.5 4192 4186.5 4181 4175.5 4170 4164.5 4159 4153.5 4148 4142.5 4137 4131.5 4126 4120.5 4115 4109.5 4104 4098.5 4093 4087.5 4082 4076.5 4071 4065.5 4060 4054.5 4049 4043.5 4038 4032.5 4027 4021.5 4016 4010.5 4005 3999.5 3994 3988.5 3983 3977.5 3972 3966.5 3961 3955.5 3950 3944.5 3939 3933.5 3928 3922.5 3917 3911.5 3906 3900.5 3895 3889.5 3884 3878.5 3873 3867.5 3862 3856.5 3851 3845.5 3840 3834.5 3829 3823.5 3818 3812.5 3807 3801.5 3796 3790.5 3785 3779.5 3774 3796.5 3819 3841.5 3864 3886.5
4317.5 4312 4306.5 4301 4295.5 4290 4284.5 4279 4273.5 4268 4262.5 4257 4251.5 4246 4240.5 4235 4229.5 4224 4218.5 4213 4207.5 4202 4196.5 4191 4185.5 4180 4174.5 4169 4163.5 4158 4152.5 4147 4141.5 4136 4130.5 4125 4119.5 4114 4108.5 4103 4097.5 4092 4086.5 4081 4075.5 4070 4064.5 4059 4053.5 4048 4042.5 4037 4031.5 4026 4020.5 4015 4009.5 4004 3998.5 3993 3987.5 3982 3976.5 3971 3965.5 3960 3954.5 3949 3943.5 3938 3932.5 3927 3921.5 3916 3910.5 3905 3899.5 3894 3888.5 3883 3877.5 3872 3866.5 3861 3855.5 3850 3844.5 3839 3833.5 3828 3822.5 3817 3811.5 3806 3800.5 3795 3817.5 3840 3862.5 3885
4344 4338.5 4333 4327.5 4322 4316.5 4311 4305.5 4300 4294.5 4289 4283.5 4278 4272.5 4267 4261.5 4256 4250.5 4245 4239.5 4234 4228.5 4223 4217.5 4212 4206.5 4201 4195.5 4190 4184.5 4179 4173.5 4168 4162.5 4157 4151.5 4146 4140.5 4135 4129.5 4124 4118.5 4113 4107.5 4102 4096.5 4091 4085.5 4080 4074.5 4069 4063.5 4058 4052.5 4047 4041.5 4036 4030.5 4025 4019.5 4014 4008.5 4003 3997.5 3992 3986.5 3981 3975.5 3970 3964.5 3959 3953.5 3948 3942.5 3937 3931.5 3926 3920.5 3915 3909.5 3904 3898.5 3893 3887.5 3882 3876.5 3871 3865.5 3860 3854.5 3849 3843.5 3838 3832.5 3827 3821.5 3816 3838.5 3861 3883.5
4370.5 4365 4359.5 4354 4348.5 4343 4337.5 4332 4326.5 4321 4315.5 4310 4304.5 4299 4293.5 4288 4282.5 4277 4271.5 4266 4260.5 4255 4249.5 4244 4238.5 4233 4227.5 4222 4216.5 4211 4205.5 4200 4194.5 4189 4183.5 4178 4172.5 4167 4161.5 4156 4150.5 4145 4139.5 4134 4128.5 4123 4117.5 4112 4106.5 4101 4095.5 4090 4084.5 4079 4073.5 4068 4062.5 4057 4051.5 4046 4040.5 4035 4029.5 4024 4018.5 4013 4007.5 4002 3996.5 3991 3985.5 3980 3974.5 3969 3963.5 3958 3952.5 3947 3941.5 3936 3930.5 3925 3919.5 3914 3908.5 3903 3897.5 3892 3886.5 3881 3875.5 3870 3864.5 3859 3853.5 3848 3842.5 3837 3859.5 3882
4397 4391.5 4386 4380.5 4375 4369.5 4364 4358.5 4353 4347.5 4342 4336.5 4331 4325.5 4320 4314.5 4309 4303.5 4298 4292.5 4287 4281.5 4276 4270.5 4265 4259.5 4254 4248.5 4243 4237.5 4232 4226.5 4221 4215.5 4210 4204.5 4199 4193.5 4188 4182.5 4177 4171.5 4166 4160.5 4155 4149.5 4144 4138.5 4133 4127.5 4122 4116.5 4111 4105.5 4100 4094.5 4089 4083.5 4078 4072.5 4067 4061.5 4056 4050.5 4045 4039.5 4034 4028.5 4023 4017.5 4012 4006.5 4001 3995.5 3990 3984.5 3979 3973.5 3968 3962.5 3957 3951.5 3946 3940.5 3935 3929.5 3924 3918.5 3913 3907.5 3902 3896.5 3891 3885.5 3880 3874.5 3869 3863.5 3858 3880.5
4423.5 4418 4412.5 4407 4401.5 4396 4390.5 4385 4379.5 4374 4368.5 4363 4357.5 4352 4346.5 4341 4335.5 4330 4324.5 4319 4313.5 4308 4302.5 4297 4291.5 4286 4280.5 4275 4269.5 4264 4258.5 4253 4247.5 4242 4236.5 4231 4225.5 4220 4214.5 4209 4203.5 4198 4192.5 4187 4181.5 4176 4170.5 4165 4159.5 4154 4148.5 4143 4137.5 4132 4126.5 4121 4115.5 4110 4104.5 4099 4093.5 4088 4082.5 4077 4071.5 4066 4060.5 4055 4049.5 4044 4038.5 4033 4027.5 4022 4016.5 4011 4005.5 4000 3994.5 3989 3983.5 3978 3972.5 3967 3961.5 3956 3950.5 3945 3939.5 3934 3928.5 3923 3917.5 3912 3906.5 3901 3895.5 3890 3884.5 3879

